X:1
T:16-delspolska efter Sammil Gustaf Zetterström
R:Polska
Z:Göran Hed, 2009-01-06
O:Dalarna, Svartnäs
S:Sammil Gustaf Zetterström
S:Erik Björkman
S:Svärdsjö spelmanslag
M:3/4
L:1/16
K:G
D2|G2>D2 D2G2  GFGB|A2>D2 D2A2 A2c2|BAGF GABc d2B2|cAFA G2D2 B,2D2|
   G2>D2 D2G2  GFGB|A2>D2 D2A2 A2c2|BAGF GABc d2B2|c2AF G6::B2|
   B2>c2 ded^c dedc|d2>g2 g2f2 f2e2|A2>B2 cdcB cdcB |c2e2 edcB A2Bc|
   dcBA  G2FE    D4|BAGF G2D2 B,2C2|A,2>B,2 C2D2 E2F2|A2GFG6:|

